X:2
T:The Trows o' Truggles Water (\251 Chris Stout)
M:6/8
K:DDor
"Dm"D2F EDC|DED CA,G,|"G"B,2D CB,A,|B,A,G, A,B,C|
"Dm"D2F EDC|DED C2B,-|"G"B,2D CB,A,|G,A,G, G,3 :|
|:"Am"AcB ABc|ded cAG|"F"AcB ABc|dcB A3|
"Dm"AcB ABc|ded cAG|"G"B2d cBA|GAG G3|
"Am"AcB ABc|ded cAG|"F"AcB ABc|dcB A2 e-|
"Dm"edc dcB|cBA BAG|"F"ABA GEC|["normal""G"DED D3|]["Trans""G".D2zz3|]
%%textfont Times-Roman 6.0
%%text 8/21/15 

#include "RightHeader.h"
%%text Set 106 NEFFA 2011 Jigs to Reel, continued
$SmallLMargin
$SmallRMargin
%%scale .9
